X: 15853
T: Gosling, The
R: reel
M: 4/4
K: Gmajor
|:Adde fded|cAGE CAGE|C2 GC ACGE|C2 GC cAGE|
D2 AD dDAD|ABcA defg|afge e=ffe|dcAF G2 FG:|
|:Addd afge|AddB cBAG|Adde fded|cAGC EFGB|
Adde fded|dcAB cABG|A2 AB ADFA|c2 cB cedc:|
|:ADDD ADBD|ADFA c2 BG|ADDD ADFA|GCDC EGcB|
[1 ADDD ADFD|ADFA c2 BG|A2 AB ADFA|c2 cB cedc:|
[2 ADDD ADFD|DE=FA d2 de|=fagf ecBA|GCEC EGcB||

